lib/assets/icons/svg/outlined-communication-treatment.svg

<svg viewBox="0 0 24 24" xmlns="http://www.w3.org/2000/svg">
  <path  d="M 18.905 9.457 L 18.675 9.457 C 18.172 6.179 15.352 3.758 12.035 3.757 C 8.688 3.755 5.823 6.16 5.245 9.457 L 5.095 9.457 C 3.66 9.574 2.583 10.82 2.675 12.257 C 2.577 13.698 3.656 14.95 5.095 15.067 L 6.495 15.067 L 6.495 10.617 C 6.495 6.352 11.112 3.687 14.805 5.819 C 16.519 6.809 17.575 8.638 17.575 10.617 L 17.575 15.617 C 17.562 16.862 16.622 17.9 15.385 18.037 C 15.035 17.524 14.445 17.229 13.825 17.257 C 12.927 17.208 12.144 17.864 12.035 18.757 C 12.135 19.652 12.927 20.307 13.825 20.237 C 14.462 20.252 15.058 19.924 15.385 19.377 C 17.33 19.216 18.826 17.589 18.825 15.637 L 18.825 15.087 L 18.895 15.087 C 20.338 14.975 21.423 13.722 21.325 12.277 C 21.423 10.834 20.346 9.579 18.905 9.457 Z M 3.845 12.257 C 3.845 11.317 4.395 10.617 5.095 10.617 L 5.175 10.617 L 5.175 13.897 L 5.095 13.897 C 4.395 13.897 3.845 13.197 3.845 12.257 Z M 13.845 19.047 C 13.455 19.047 13.215 18.887 13.215 18.737 C 13.215 18.587 13.455 18.417 13.845 18.417 C 14.235 18.417 14.465 18.577 14.465 18.737 C 14.465 18.897 14.155 19.047 13.845 19.047 Z M 18.915 13.897 L 18.835 13.897 L 18.835 10.617 L 18.915 10.617 C 19.535 10.617 20.165 11.397 20.165 12.257 C 20.165 13.117 19.615 13.897 18.915 13.897 Z" style="clip-path: url(#a);"/>
</svg>

<svg xmlns="http://www.w3.org/2000/svg" viewBox="0 0 24 24"><path d="M18.905 9.457h-.23a6.72 6.72 0 0 0-6.64-5.7 6.89 6.89 0 0 0-6.79 5.7h-.15a2.64 2.64 0 0 0-2.42 2.8 2.64 2.64 0 0 0 2.42 2.81h1.4v-4.45c0-4.265 4.617-6.93 8.31-4.798a5.541 5.541 0 0 1 2.77 4.798v5a2.46 2.46 0 0 1-2.19 2.42 1.79 1.79 0 0 0-1.56-.78 1.71 1.71 0 0 0-1.79 1.5c.1.895.892 1.55 1.79 1.48a1.768 1.768 0 0 0 1.56-.86 3.75 3.75 0 0 0 3.44-3.74v-.55h.07a2.64 2.64 0 0 0 2.43-2.81 2.65 2.65 0 0 0-2.42-2.82zm-15.06 2.8c0-.94.55-1.64 1.25-1.64h.08v3.28h-.08c-.7 0-1.25-.7-1.25-1.64zm10 6.79c-.39 0-.63-.16-.63-.31s.24-.32.63-.32.62.16.62.32-.31.31-.62.31zm5.07-5.15h-.08v-3.28h.08c.62 0 1.25.78 1.25 1.64 0 .86-.55 1.64-1.25 1.64z" clip-path="url(#a)"/></svg>
